images/customer/logo customer 2.svg

<svg width="76" height="98" viewBox="0 0 76 98" fill="none" xmlns="http://www.w3.org/2000/svg">
<g clip-path="url(#clip0)">
<path d="M32.2913 6.32892H32.5462C33.0182 6.32892 33.528 6.37636 34.033 6.41906C36.2584 6.57601 38.468 6.90918 40.6412 7.41546V2.0729C38.4035 1.51146 36.1213 1.14789 33.8206 0.986353C32.9474 0.919927 32.0175 0.877224 31.0641 0.8535H30.2664C25.6485 0.870866 21.0507 1.46373 16.578 2.61854C11.4838 3.88902 6.59401 5.8778 2.0542 8.52572V61.5101C6.42541 59.135 11.0767 57.3225 15.8983 56.1153C19.7054 55.1439 23.5973 54.5465 27.5193 54.3313H27.675C28.3311 54.2981 28.9872 54.2791 29.6622 54.2744V48.8464C24.5661 48.912 19.4958 49.5857 14.5578 50.8534C12.7311 51.3279 10.9658 51.8403 9.30903 52.4097L7.42098 53.0502V11.7379L8.22812 11.3488C14.3878 8.428 21.0499 6.72842 27.8497 6.34315C27.9062 6.33903 27.963 6.33903 28.0196 6.34315C28.7701 6.30519 29.5253 6.28621 30.2664 6.28621H31.0782H31.116C31.5078 6.2957 31.8995 6.30519 32.2913 6.32892Z" fill="#AFB1B8"/>
<path d="M45.6025 11.9229C44.3611 11.9229 43.1339 11.8802 41.9492 11.79C40.5331 11.6857 39.0793 11.5149 37.701 11.2824C36.8609 11.14 36.0348 10.9692 35.2324 10.7842V63.1612C38.6296 64.0023 42.1181 64.4136 45.6167 64.3853C50.2341 64.3666 54.8316 63.7754 59.305 62.625C64.4002 61.3529 69.2913 59.3642 73.8336 56.7178V4.6777C69.4629 7.05149 64.8135 8.86545 59.9942 10.0772C55.2908 11.2852 50.457 11.9052 45.6025 11.9229ZM66.5457 12.8291L68.4337 12.1933V53.5199L67.6266 53.909C64.5306 55.382 61.2973 56.5438 57.974 57.3774C53.938 58.4216 49.7888 58.9587 45.6214 58.9763C44.3753 58.9763 43.1386 58.9241 41.9397 58.8198L40.6464 58.7059V53.6907V16.2074L42.1521 16.307C43.2472 16.3782 44.38 16.4114 45.612 16.4114C50.9028 16.3926 56.171 15.7169 61.2969 14.3996C63.0575 13.9347 64.8087 13.4127 66.5457 12.8291Z" fill="#AFB1B8"/>
<path d="M5.7222 79.616C5.45077 79.3345 5.12354 79.1135 4.76171 78.9672C4.39987 78.8208 4.0115 78.7526 3.62174 78.7667C3.20638 78.7612 2.79406 78.8386 2.40867 78.9945C2.05534 79.1352 1.73416 79.3467 1.46465 79.616C1.19807 79.8862 0.990664 80.2095 0.855755 80.565C0.707776 80.9376 0.634005 81.3358 0.638629 81.7369V88.8161C0.621747 89.3149 0.716935 89.8112 0.917116 90.268C1.08422 90.6307 1.32546 90.9541 1.62513 91.2169C1.90804 91.4551 2.24021 91.6269 2.59748 91.7198C2.9417 91.8166 3.29736 91.8661 3.65479 91.8669C4.04904 91.8709 4.43922 91.7866 4.79705 91.6202C5.1509 91.4654 5.4715 91.243 5.74108 90.9654C6.00396 90.6904 6.21364 90.3686 6.35941 90.0165C6.5107 89.6595 6.5878 89.2752 6.58598 88.8872V88.0949H4.73569V88.7259C4.74119 88.9414 4.7043 89.1559 4.62713 89.357C4.56687 89.5077 4.47512 89.6436 4.35808 89.7555C4.24346 89.8481 4.112 89.9174 3.97103 89.9595C3.84608 90.0012 3.71559 90.0235 3.58398 90.026C3.41879 90.0452 3.25147 90.0202 3.09896 89.9536C2.94645 89.8869 2.81416 89.781 2.71548 89.6464C2.54106 89.3619 2.45556 89.0313 2.47004 88.6975V82.0975C2.45856 81.7315 2.53634 81.3683 2.6966 81.0395C2.79266 80.8901 2.92856 80.7708 3.0888 80.6953C3.24904 80.6198 3.42717 80.5911 3.60286 80.6124C3.76235 80.6068 3.92083 80.6401 4.0647 80.7095C4.20857 80.7789 4.33354 80.8824 4.42889 81.011C4.63593 81.2828 4.7442 81.6177 4.73569 81.9599V82.572H6.5671V81.8508C6.57082 81.4273 6.49392 81.0069 6.34053 80.6124C6.20385 80.2416 5.99346 79.9025 5.7222 79.616Z" fill="#AFB1B8"/>
<path d="M16.7145 79.5354C16.1245 79.0372 15.3798 78.762 14.6093 78.7573C14.2324 78.7589 13.8587 78.8263 13.5048 78.9566C13.1455 79.0854 12.8139 79.2818 12.5277 79.5354C12.2212 79.811 11.9766 80.149 11.8103 80.5271C11.6239 80.9595 11.5321 81.4271 11.5412 81.8983V88.688C11.5284 89.1656 11.6203 89.6402 11.8103 90.0782C11.9777 90.4433 12.2226 90.7672 12.5277 91.0271C12.8106 91.2898 13.1428 91.493 13.5048 91.625C13.8587 91.7552 14.2324 91.8227 14.6093 91.8243C14.9862 91.8235 15.3601 91.7561 15.7138 91.625C16.082 91.4912 16.4216 91.2883 16.7145 91.0271C17.0096 90.7623 17.2474 90.4393 17.413 90.0782C17.603 89.6402 17.6948 89.1656 17.6821 88.688V81.8983C17.6912 81.4271 17.5994 80.9595 17.413 80.5271C17.2483 80.153 17.0108 79.8158 16.7145 79.5354ZM15.8507 88.688C15.8663 88.869 15.8413 89.0511 15.7776 89.2211C15.7139 89.3911 15.613 89.5445 15.4825 89.6702C15.2381 89.8751 14.9299 89.9874 14.6116 89.9874C14.2934 89.9874 13.9852 89.8751 13.7408 89.6702C13.6103 89.5445 13.5094 89.3911 13.4457 89.2211C13.382 89.0511 13.357 88.869 13.3726 88.688V81.8983C13.357 81.7173 13.382 81.5352 13.4457 81.3652C13.5094 81.1952 13.6103 81.0418 13.7408 80.9161C13.9852 80.7112 14.2934 80.5989 14.6116 80.5989C14.9299 80.5989 15.2381 80.7112 15.4825 80.9161C15.613 81.0418 15.7139 81.1952 15.7776 81.3652C15.8413 81.5352 15.8663 81.7173 15.8507 81.8983V88.688Z" fill="#AFB1B8"/>
<path d="M31.1541 91.7198V78.8664H29.3746L27.0381 85.6703H27.0051L24.6498 78.8664H22.8892V91.7198H24.7253V83.9005H24.7583L26.5567 89.4281H27.4724L29.2849 83.9005H29.318V91.7198H31.1541Z" fill="#AFB1B8"/>
<path d="M41.5855 79.7677C41.3028 79.4505 40.9459 79.2092 40.5471 79.0655C40.1174 78.9257 39.6676 78.8583 39.216 78.8662H36.4878V91.7197H38.3192V86.6998H39.2632C39.8346 86.7257 40.4032 86.6049 40.9153 86.3486C41.3317 86.1174 41.6788 85.7783 41.9207 85.3665C42.1325 85.0246 42.2753 84.6441 42.3407 84.2467C42.4128 83.7631 42.446 83.2744 42.4399 82.7853C42.4577 82.1681 42.3974 81.5511 42.2605 80.9491C42.1383 80.5044 41.9061 80.0979 41.5855 79.7677ZM40.6415 83.6869C40.6336 83.9196 40.5756 84.1478 40.4716 84.3559C40.3669 84.5535 40.2013 84.7117 39.9996 84.8066C39.7283 84.9279 39.4323 84.9832 39.1358 84.9679H38.3003V80.598H39.2443C39.5286 80.5841 39.812 80.6394 40.0704 80.7594C40.2597 80.868 40.4101 81.0341 40.4999 81.2338C40.6 81.4596 40.6545 81.7031 40.6604 81.9503C40.6604 82.2207 40.6604 82.5054 40.6604 82.8043C40.6604 83.1033 40.6793 83.4117 40.6604 83.6869H40.6415Z" fill="#AFB1B8"/>
<path d="M50.2603 78.8664H48.7593L45.9272 91.7198H47.7587L48.2967 88.9584H50.7937L51.3318 91.7198H53.1632L50.2603 78.8664ZM48.5705 87.2076L49.4721 82.5483H49.5051L50.4019 87.2076H48.5705Z" fill="#AFB1B8"/>
<path d="M62.0943 86.6098H62.0613L59.2953 78.8664H57.5347V91.7198H59.3661V83.9907H59.4038L62.2029 91.7198H63.9257V78.8664H62.0943V86.6098Z" fill="#AFB1B8"/>
<path d="M73.2854 78.8664L71.8127 83.9765H71.775L70.3023 78.8664H68.3623L70.8781 86.2871V91.7198H72.7095V86.2871L75.2254 78.8664H73.2854Z" fill="#AFB1B8"/>
<path d="M0.614746 95.3493H1.49741V97.826H2.09686V95.3493H2.97481V94.8416H0.614746V95.3493Z" fill="#AFB1B8"/>
<path d="M8.03485 94.8416L6.87842 97.826H7.51563L7.76108 97.1475H8.95055L9.20544 97.826H9.85681L8.67206 94.8416H8.03485ZM7.94044 96.6446L8.34637 95.5391L8.7523 96.6446H7.94044Z" fill="#AFB1B8"/>
<path d="M15.3698 96.7255H16.059V97.1099C15.8577 97.2712 15.6083 97.3597 15.3509 97.3613C15.2306 97.3681 15.1103 97.3457 15.0003 97.2962C14.8902 97.2467 14.7936 97.1714 14.7184 97.0766C14.5602 96.8494 14.4821 96.5755 14.4966 96.2985C14.4966 95.6343 14.7845 95.3021 15.3557 95.3021C15.506 95.2871 15.6567 95.3268 15.7805 95.4138C15.9043 95.5008 15.993 95.6295 16.0306 95.7766L16.6206 95.6627C16.4932 95.0791 16.0731 94.7849 15.3557 94.7849C14.9719 94.7747 14.5988 94.9122 14.3125 95.1693C14.1621 95.3177 14.0458 95.4974 13.9716 95.6957C13.8974 95.894 13.8672 96.1062 13.883 96.3175C13.8656 96.7258 14.0021 97.1257 14.2653 97.4372C14.4115 97.588 14.5885 97.7051 14.7841 97.7804C14.9797 97.8558 15.1891 97.8876 15.3981 97.8738C15.8651 97.8868 16.3188 97.7166 16.6631 97.3993V96.2226H15.3698V96.7255Z" fill="#AFB1B8"/>
<path d="M22.8605 94.8416H22.2563V97.826H24.3474V97.3183H22.8605V94.8416Z" fill="#AFB1B8"/>
<path d="M29.195 94.8416H28.5908V97.826H29.195V94.8416Z" fill="#AFB1B8"/>
<path d="M35.3874 96.8344L34.1649 94.8416H33.5796V97.826H34.1413V95.8759L35.3402 97.826H35.9396V94.8416H35.3874V96.8344Z" fill="#AFB1B8"/>
<path d="M40.986 96.5117H42.4729V96.004H40.986V95.3493H42.5861V94.8416H40.3818V97.826H42.6475V97.3183H40.986V96.5117Z" fill="#AFB1B8"/>
<path d="M54.5609 96.0183H53.3856V94.8416H52.7861V97.826H53.3856V96.5212H54.5609V97.826H55.1604V94.8416H54.5609V96.0183Z" fill="#AFB1B8"/>
<path d="M60.1922 96.5117H61.6838V96.004H60.1922V95.3493H61.7971V94.8416H59.5928V97.826H61.8537V97.3183H60.1922V96.5117Z" fill="#AFB1B8"/>
<path d="M67.8294 96.512C68.3487 96.4313 68.613 96.1561 68.613 95.6816C68.628 95.5547 68.6088 95.426 68.5573 95.3091C68.5058 95.1923 68.424 95.0915 68.3203 95.0174C68.05 94.8817 67.7486 94.821 67.4471 94.8418H66.1821V97.8263H66.7816V96.5784H66.8996C67.0274 96.5705 67.1552 96.5933 67.2725 96.6448C67.3601 96.6988 67.4331 96.7738 67.4849 96.8631L68.1363 97.812H68.8537L68.4903 97.2284C68.3296 96.9403 68.1031 96.6947 67.8294 96.512ZM67.2253 96.0992H66.7816V95.3495H67.2536C67.4592 95.3328 67.6661 95.357 67.8625 95.4207C67.9061 95.4592 67.9406 95.5071 67.9633 95.5609C67.986 95.6147 67.9964 95.6729 67.9937 95.7312C67.9909 95.7895 67.9752 95.8465 67.9476 95.8979C67.92 95.9493 67.8812 95.9937 67.8342 96.028C67.6371 96.0884 67.4308 96.1125 67.2253 96.0992Z" fill="#AFB1B8"/>
<path d="M73.5876 96.5117H75.0744V96.004H73.5876V95.3493H75.1924V94.8416H72.9834V97.826H75.249V97.3183H73.5876V96.5117Z" fill="#AFB1B8"/>
</g>
<defs>
<clipPath id="clip0">
<rect width="74.6345" height="97.0249" fill="white" transform="translate(0.614746 0.853516)"/>
</clipPath>
</defs>
</svg>

<svg width="76" height="98" fill="none" xmlns="http://www.w3.org/2000/svg"><g clip-path="url(#clip0)" fill="#AFB1B8"><path d="M32.291 6.329h.255c.472 0 .982.047 1.487.09 2.225.157 4.435.49 6.608.996V2.073a39.352 39.352 0 00-6.82-1.087 54.563 54.563 0 00-2.757-.132h-.798c-4.617.017-9.215.61-13.688 1.765A55.467 55.467 0 002.054 8.526V61.51a59.024 59.024 0 0113.844-5.395 60.384 60.384 0 0111.621-1.784h.156a45.385 45.385 0 011.987-.057v-5.428a64.057 64.057 0 00-15.104 2.007 71.725 71.725 0 00-5.249 1.557l-1.888.64V11.738l.807-.39A52.76 52.76 0 0127.85 6.344a1.17 1.17 0 01.17 0c.75-.038 1.505-.057 2.246-.057H31.116c.392.01.784.02 1.175.043z"/><path d="M45.602 11.923a48.327 48.327 0 01-7.901-.64 42.96 42.96 0 01-2.469-.499v52.377a41.8 41.8 0 0010.385 1.224 55.866 55.866 0 0013.688-1.76 55.627 55.627 0 0014.529-5.907V4.678a59.29 59.29 0 01-13.84 5.4 58.712 58.712 0 01-14.392 1.845zm20.944.906l1.888-.636V53.52l-.807.389a51.804 51.804 0 01-9.653 3.468 50.16 50.16 0 01-12.353 1.6c-1.246 0-2.482-.053-3.681-.157l-1.294-.114V16.207l1.506.1c1.095.071 2.228.104 3.46.104A63.927 63.927 0 0061.297 14.4a83.066 83.066 0 005.249-1.57zM5.722 79.616a2.784 2.784 0 00-2.1-.85 3.124 3.124 0 00-1.213.228 2.73 2.73 0 00-1.553 1.57 3.08 3.08 0 00-.217 1.173v7.08c-.017.498.078.994.278 1.451.167.363.408.686.708.949.283.238.615.41.972.503.345.097.7.146 1.058.147.394.004.784-.08 1.142-.247.354-.155.675-.377.944-.655.263-.275.473-.596.618-.949a2.86 2.86 0 00.227-1.129v-.792h-1.85v.63c.005.216-.032.43-.109.632-.06.15-.152.287-.269.398a1.13 1.13 0 01-.387.205 1.3 1.3 0 01-.387.066.94.94 0 01-.869-.38 1.677 1.677 0 01-.245-.948v-6.6c-.011-.367.066-.73.227-1.058a.946.946 0 01.906-.428.983.983 0 01.826.399c.207.272.315.607.307.949v.612h1.831v-.721a3.337 3.337 0 00-.226-1.239 2.916 2.916 0 00-.619-.996zM16.715 79.535a3.294 3.294 0 00-2.106-.778c-.377.002-.75.07-1.104.2a2.908 2.908 0 00-1.694 1.57c-.187.433-.279.9-.27 1.371v6.79c-.013.478.08.952.27 1.39.167.365.412.69.717.95.283.262.615.465.977.597.354.13.727.198 1.104.2a3.197 3.197 0 002.106-.798c.295-.265.532-.588.698-.949.19-.438.282-.912.27-1.39v-6.79a3.303 3.303 0 00-.27-1.37 3.066 3.066 0 00-.698-.993zm-.864 9.153a1.22 1.22 0 01-.369.982 1.356 1.356 0 01-1.741 0 1.216 1.216 0 01-.368-.982v-6.79a1.22 1.22 0 01.368-.982 1.355 1.355 0 011.742 0 1.216 1.216 0 01.368.982v6.79zM31.154 91.72V78.866h-1.78l-2.336 6.804h-.033l-2.355-6.804h-1.76V91.72h1.835V83.9h.033l1.799 5.528h.915l1.813-5.528h.033v7.82h1.836zM41.586 79.768a2.548 2.548 0 00-1.039-.703c-.43-.14-.88-.207-1.331-.199h-2.728V91.72h1.831V86.7h.944a3.352 3.352 0 001.652-.351 2.67 2.67 0 001.006-.983c.212-.341.354-.722.42-1.12.072-.483.105-.972.099-1.46a7.328 7.328 0 00-.18-1.837 2.737 2.737 0 00-.674-1.181zm-.944 3.919a1.62 1.62 0 01-.17.669c-.105.198-.27.356-.472.45a1.879 1.879 0 01-.864.162H38.3v-4.37h.944c.285-.014.568.041.826.161.19.109.34.275.43.475.1.226.154.47.16.716v.854c0 .3.02.608 0 .883h-.018zM50.26 78.866h-1.5L45.926 91.72h1.832l.538-2.762h2.497l.538 2.762h1.831L50.26 78.866zm-1.69 8.342l.902-4.66h.033l.897 4.66H48.57zM62.094 86.61h-.033l-2.766-7.744h-1.76V91.72h1.831v-7.73h.038l2.799 7.73h1.723V78.866h-1.832v7.744zM73.285 78.866l-1.472 5.11h-.038l-1.473-5.11h-1.94l2.516 7.421v5.433h1.832v-5.433l2.515-7.42h-1.94zM.615 95.35h.882v2.476h.6v-2.477h.878v-.507H.615v.507zM8.035 94.842l-1.157 2.984h.638l.245-.678h1.19l.254.678h.652l-1.185-2.984h-.637zm-.095 1.803l.406-1.106.406 1.106H7.94zM15.37 96.725h.689v.385c-.201.161-.45.25-.708.251a.751.751 0 01-.633-.284 1.248 1.248 0 01-.221-.778c0-.665.287-.997.859-.997a.63.63 0 01.675.475l.59-.114c-.128-.584-.548-.878-1.265-.878a1.501 1.501 0 00-1.043.384 1.456 1.456 0 00-.43 1.148c-.017.409.12.809.382 1.12a1.446 1.446 0 001.133.437c.467.013.92-.157 1.265-.475v-1.176H15.37v.502zM22.86 94.842h-.604v2.984h2.091v-.508H22.86v-2.476zM29.195 94.842h-.604v2.984h.604v-2.984zM35.387 96.834l-1.222-1.992h-.585v2.984h.561v-1.95l1.2 1.95h.599v-2.984h-.553v1.992zM40.986 96.512h1.487v-.508h-1.487v-.655h1.6v-.507h-2.204v2.984h2.266v-.508h-1.662v-.806zM54.56 96.018h-1.174v-1.176h-.6v2.984h.6v-1.305h1.175v1.305h.6v-2.984h-.6v1.176zM60.192 96.512h1.492v-.508h-1.492v-.655h1.605v-.507h-2.204v2.984h2.26v-.508h-1.66v-.806zM67.83 96.512c.519-.08.783-.356.783-.83a.716.716 0 00-.293-.665 1.687 1.687 0 00-.873-.175h-1.265v2.984h.6v-1.248h.118a.804.804 0 01.372.067c.088.054.161.129.213.218l.651.949h.718l-.364-.584a2.078 2.078 0 00-.66-.716zm-.605-.413h-.443v-.75h.472c.205-.016.412.008.608.072a.389.389 0 01-.028.607c-.197.06-.403.084-.609.071zM73.588 96.512h1.486v-.508h-1.486v-.655h1.604v-.507h-2.209v2.984h2.266v-.508h-1.661v-.806z"/></g><defs><clipPath id="clip0"><path fill="#fff" transform="translate(.615 .854)" d="M0 0h74.635v97.025H0z"/></clipPath></defs></svg>
